src/assets/icons/filters/categories/tv_stroke.svg

<svg width="48" height="47" viewBox="0 0 48 47" fill="none" xmlns="http://www.w3.org/2000/svg">
<path fill-rule="evenodd" clip-rule="evenodd" d="M45 17.9998V40.5628C44.9992 40.9436 44.8476 41.3087 44.5782 41.578C44.3089 41.8473 43.9439 41.999 43.563 41.9998H4.437C4.05613 41.999 3.69108 41.8473 3.42176 41.578C3.15245 41.3087 3.00079 40.9436 3 40.5628V11.9368C3.00079 11.5559 3.15245 11.1909 3.42176 10.9215C3.69108 10.6522 4.05613 10.5006 4.437 10.4998H43.563C43.9439 10.5006 44.3089 10.6522 44.5782 10.9215C44.8476 11.1909 44.9992 11.5559 45 11.9368V17.9998ZM43.563 7.49977C44.7394 7.50096 45.8673 7.96882 46.6991 8.80066C47.531 9.6325 47.9988 10.7604 48 11.9368V40.5628C47.9988 41.7392 47.531 42.867 46.6991 43.6989C45.8673 44.5307 44.7394 44.9986 43.563 44.9998H40.5C40.502 45.1973 40.4646 45.3933 40.3899 45.5762C40.3152 45.7591 40.2048 45.9252 40.0651 46.0649C39.9254 46.2046 39.7593 46.315 39.5764 46.3897C39.3935 46.4643 39.1975 46.5018 39 46.4998C38.8025 46.5018 38.6065 46.4643 38.4236 46.3897C38.2407 46.315 38.0746 46.2046 37.9349 46.0649C37.7952 45.9252 37.6848 45.7591 37.6101 45.5762C37.5354 45.3933 37.498 45.1973 37.5 44.9998H9C9.00201 45.1973 8.96458 45.3933 8.8899 45.5762C8.81523 45.7591 8.70482 45.9252 8.56513 46.0649C8.42544 46.2046 8.25928 46.315 8.07639 46.3897C7.8935 46.4643 7.69754 46.5018 7.5 46.4998C7.30246 46.5018 7.1065 46.4643 6.92361 46.3897C6.74072 46.315 6.57456 46.2046 6.43487 46.0649C6.29518 45.9252 6.18477 45.7591 6.1101 45.5762C6.03542 45.3933 5.99799 45.1973 6 44.9998H4.437C3.2606 44.9986 2.13272 44.5307 1.30088 43.6989C0.469042 42.867 0.00119129 41.7392 0 40.5628V11.9368C0.00119129 10.7604 0.469042 9.6325 1.30088 8.80066C2.13272 7.96882 3.2606 7.50096 4.437 7.49977H20.379L15.4395 2.56027C15.3002 2.42101 15.1898 2.25567 15.1144 2.07371C15.039 1.89175 15.0002 1.69673 15.0002 1.49977C15.0002 1.10201 15.1582 0.720536 15.4395 0.439274C15.7208 0.158012 16.1022 0 16.5 0C16.697 0 16.892 0.0387927 17.0739 0.114163C17.2559 0.189534 17.4212 0.300007 17.5605 0.439274L23.25 6.12877L28.9395 0.439274C29.2208 0.158012 29.6022 0 30 0C30.3978 0 30.7792 0.158012 31.0605 0.439274C31.3418 0.720536 31.4998 1.10201 31.4998 1.49977C31.4998 1.89754 31.3418 2.27901 31.0605 2.56027L26.121 7.49977H43.563ZM42.93 16.6198C42.75 16.6948 42.585 16.7998 42.435 16.9348C42.165 17.2198 42 17.6098 42 17.9998C41.998 18.1973 42.0354 18.3933 42.1101 18.5762C42.1848 18.7591 42.2952 18.9252 42.4349 19.0649C42.5746 19.2046 42.7407 19.315 42.9236 19.3897C43.1065 19.4644 43.3025 19.5018 43.5 19.4998C43.6975 19.5018 43.8935 19.4644 44.0764 19.3897C44.2593 19.315 44.4254 19.2046 44.5651 19.0649C44.7048 18.9252 44.8152 18.7591 44.8899 18.5762C44.9646 18.3933 45.002 18.1973 45 17.9998C45 17.6098 44.835 17.2198 44.565 16.9348C44.3541 16.7266 44.0862 16.5856 43.7952 16.5296C43.5042 16.4735 43.2032 16.5049 42.93 16.6198V16.6198ZM42.435 24.4348C42.165 24.7198 42 25.1098 42 25.4998C42 25.9048 42.15 26.2798 42.435 26.5648C42.585 26.6998 42.75 26.8198 42.93 26.8798C43.11 26.9698 43.305 26.9998 43.5 26.9998C43.695 26.9998 43.89 26.9698 44.07 26.8798C44.25 26.8198 44.415 26.6998 44.565 26.5648C44.7047 26.4251 44.8151 26.259 44.8898 26.0761C44.9645 25.8932 45.002 25.6973 45 25.4998C45 25.1098 44.835 24.7198 44.565 24.4348C43.995 23.8798 42.99 23.8798 42.435 24.4348V24.4348ZM42.93 31.6198C42.735 31.6948 42.585 31.7998 42.435 31.9348C42.165 32.2198 42 32.6098 42 32.9998C41.998 33.1973 42.0354 33.3933 42.1101 33.5762C42.1848 33.7591 42.2952 33.9252 42.4349 34.0649C42.5746 34.2046 42.7407 34.315 42.9236 34.3897C43.1065 34.4644 43.3025 34.5018 43.5 34.4998C43.6975 34.5018 43.8935 34.4644 44.0764 34.3897C44.2593 34.315 44.4254 34.2046 44.5651 34.0649C44.7048 33.9252 44.8152 33.7591 44.8899 33.5762C44.9646 33.3933 45.002 33.1973 45 32.9998C45 32.6098 44.835 32.2198 44.565 31.9348C44.145 31.5298 43.485 31.3798 42.93 31.6198ZM36.72 34.2223C36.519 35.1973 35.34 36.2848 34.338 36.4153C26.4762 37.3588 18.5298 37.3588 10.668 36.4153C9.663 36.2878 8.4825 35.2003 8.283 34.2358C7.24403 28.9676 7.24301 23.5473 8.28 18.2788C8.4825 17.3008 9.6645 16.2133 10.656 16.0873C18.5197 15.1428 26.4682 15.1423 34.332 16.0858C35.337 16.2148 36.5175 17.3008 36.717 18.2653C37.755 23.5648 37.755 28.9378 36.72 34.2223V34.2223ZM34.7025 13.1083C26.5925 12.1362 18.3955 12.1362 10.2855 13.1083C8.0175 13.4008 5.8005 15.4483 5.34 17.6893C4.22501 23.347 4.22602 29.168 5.343 34.8253C5.8005 37.0528 8.0175 39.1003 10.2975 39.3928C18.4034 40.3653 26.5966 40.3653 34.7025 39.3928L34.713 39.3913C36.981 39.1018 39.198 37.0543 39.6615 34.8133C40.776 29.155 40.7745 23.3335 39.657 17.6758C39.1995 15.4498 36.984 13.4008 34.701 13.1083H34.7025Z" fill="black"/>
</svg>

<svg width="48" height="47" viewBox="0 0 48 47" fill="none" xmlns="http://www.w3.org/2000/svg"><path fill-rule="evenodd" clip-rule="evenodd" d="M45 18v22.563A1.44 1.44 0 0143.563 42H4.437A1.44 1.44 0 013 40.563V11.937A1.44 1.44 0 014.437 10.5h39.126A1.44 1.44 0 0145 11.937V18zM43.563 7.5A4.441 4.441 0 0148 11.937v28.626A4.441 4.441 0 0143.563 45H40.5a1.485 1.485 0 01-1.5 1.5 1.487 1.487 0 01-1.5-1.5H9a1.485 1.485 0 01-1.5 1.5A1.486 1.486 0 016 45H4.437A4.442 4.442 0 010 40.563V11.937A4.442 4.442 0 014.437 7.5h15.942l-4.94-4.94A1.5 1.5 0 1117.562.44l5.689 5.689 5.69-5.69a1.5 1.5 0 012.12 2.121L26.122 7.5h17.442zm-.633 9.12c-.18.075-.345.18-.495.315-.27.285-.435.675-.435 1.065a1.485 1.485 0 001.5 1.5A1.485 1.485 0 0045 18c0-.39-.165-.78-.435-1.065a1.499 1.499 0 00-1.635-.315zm-.495 7.815c-.27.285-.435.675-.435 1.065 0 .405.15.78.435 1.065.15.135.315.255.495.315.18.09.375.12.57.12.195 0 .39-.03.57-.12.18-.06.345-.18.495-.315A1.485 1.485 0 0045 25.5c0-.39-.165-.78-.435-1.065-.57-.555-1.575-.555-2.13 0zm.495 7.185c-.195.075-.345.18-.495.315-.27.285-.435.675-.435 1.065a1.485 1.485 0 001.5 1.5A1.485 1.485 0 0045 33c0-.39-.165-.78-.435-1.065-.42-.405-1.08-.555-1.635-.315zm-6.21 2.602c-.201.975-1.38 2.063-2.382 2.193a99.324 99.324 0 01-23.67 0c-1.005-.127-2.185-1.215-2.385-2.18A41.274 41.274 0 018.28 18.28c.203-.978 1.385-2.066 2.376-2.192a99.322 99.322 0 0123.676-.001c1.005.129 2.185 1.215 2.385 2.18a41.332 41.332 0 01.003 15.956zm-2.017-21.114a102.581 102.581 0 00-24.418 0c-2.268.293-4.484 2.34-4.945 4.581a44.273 44.273 0 00.003 17.136c.458 2.228 2.675 4.275 4.954 4.568 8.106.972 16.3.972 24.405 0l.011-.002c2.268-.29 4.485-2.337 4.948-4.578a44.28 44.28 0 00-.004-17.137c-.457-2.226-2.673-4.275-4.956-4.568h.002z" fill="#000"/></svg>
